!!!OTL: Heimath auch in der Ferne.
!!!OTL-incipit:WOHL AUF NOCH GETRUNKEN
!!!COM: Nach d. Studentenweise
!!!ARE: Europa, Mitteleuropa, Deutschland
!!!SCT: F0447
!!!TXL: @@DE
!!!YEM: Copyright 1995, estate of Helmut Schaffrath.
**kern	**text
*ICvox	*
*clefG2	*
*M2/4	*
*k[b-e-]	*
*B-:	*
!LO:TX:a:t=Heiter, nicht zu ſchnell.	!
!LO:TX:a:t=Dreiſtimmig ohne, einſtimmig mit Begleitung.	!
!LO:TX:a:t=P:only the highest voice encoded:problem	!
{8b-/	1._Wohl
=1	=1
(8b-/L	auf,
8fJ)	.
8f	noch
8dd/	ge-
=2	=2
(8dd/L	-trun-
8b-J)	.
8b-/}	-ken
{8ff/	den
=3	=3
8ffL	fun-
8ee-J	.
8dd	-keln-
8cc/	-den
=4	=4
4b-/	Wein!
8r}	.
{8dd/	A-
=5	=5
4cc/	-de
8a	nun,
8dd/	ihr
=6	=6
4cc/	Lie-
8a}	-ben,
{8ff/	ge-
=7	=7
(8cc/L	-ſchie-
8aJ)	.
8b-/	-den
8g	muß
=8	=8
4f	ſein!
8r}	.
{8f	A-
=9	=9
8fL	-de
8ee-X/J	.
8ee-/	nun
8dd/	ihr
=10	=10
(8dd/L	Ber-
8ccJ)	.
8cc/}	-ge,
{8cc/	du
=11	=11
(8dd/L	vä-
8ffJ)	.
8ee-/	-ter-
8dd/	-lich
=12	=12
4cc/;	Haus!
8r}	.
{8cc/	Es
=13	=13
(8dd/L	treibt
8ccJ)	.
8b-/	in
8a	die
=14	=14
(8gL	Fer-
8gg/J)	.
8ff/}	-ne
{8ee-/	mich
=15	=15
4dd/	mächtig
8.cc/	.
16cc/	hin-
=16	=16
4b-/	-aus.
8r}	.
==	==
!!!AGN: Heimat -, Wander -, Abschieds - Lied
!!!ONB: ESAC (Essen Associative Code) Database: FINK
!!!AMT: simple duple
!!!AIN: vox
!!!EED: Helmut Schaffrath
!!!EEV: 1.0
!!Text: J. Kerner
!!!GTL: Vaterlands- und Heimathslieder
!!@@COMMENT:"*) Mit beſonderer Grlaubniß des Herrn Verlegers aus Op. 98. Leipʒig bei Frdr. Hofmeiſter."
!!@@END:
!!!GTL: Vaterlands- und Heimathslieder.
!!!source: Musikalischer Hausschatz der Deutschen. Eine Sammlung von über 1000 Liedern und Gesängen mit Singstimmen und Klavierbegleitung. Leipzig, Litterarisches Verlags-Haus.
!!!page: 275
!!!URL-scan: https://www.digitale-sammlungen.de/en/view/bsb11144622?page=265
!!!ENC: Anna Maria Matuszewska
!!!EEV: 2024/07/31
*-	*-
